X: 10601
T: The HADDINGTON ASSEMBLY.     a Jigg.
%R: jig
B: "Edinburgh Repository of Music" v.1 p.60 #1
F: http://digital.nls.uk/special-collections-of-printed-music/pageturner.cfm?id=87776133
Z: 2015 John Chambers <jc:trillian.mit.edu>
M: 6/8
L: 1/8
K: G
B/c/ |\
dBG TG2B | dBG TG2B | ecA ABA | Tf3 {ef}g3 | dBG G2B | AFD D2c |
(B/c/d)B cAF | G3 G3 :: d | Tg2a bge | Tf2g afd | (e/f/g)e dBG | ABG TF>ED |[1 Tg2a bge |
f2g afd | (e/f/g).e | (f/g/a).f | g3 g2 :|[2 (G/A/B).G A2c | (B/c/d).B Tc2e | dcB AGF | G3 G2 |]

%%sep 2 1 500
%%sep 1 1 500

